client/assets/images/customer-home/illustration--task-podcasting.svg

<svg width="292" height="191" viewBox="0 0 292 191" fill="none" xmlns="http://www.w3.org/2000/svg">
<path d="M278.316 135.023C278.314 115.171 273.884 95.5705 265.349 77.6593C256.815 59.7481 244.392 43.9802 228.993 31.5117C213.594 19.0433 195.609 10.1903 176.356 5.60196C157.103 1.01363 137.071 0.806255 117.727 4.99505C98.3841 9.18384 80.2205 17.6626 64.5683 29.8096C48.9161 41.9567 36.1723 57.4641 27.2711 75.1948C18.3698 92.9255 13.537 112.43 13.1268 132.278C12.7166 152.126 16.7395 171.815 24.9005 189.901H266.481C274.302 172.671 278.338 153.955 278.316 135.023Z" fill="#5198D9" fill-opacity="0.1"/>
<path d="M1.83716 189.9H10.1252" stroke="#2C3338" stroke-linecap="round" stroke-linejoin="round"/>
<path d="M281.974 189.9H290.262" stroke="#2C3338" stroke-linecap="round" stroke-linejoin="round"/>
<path d="M173.656 189.82H114.181C114.181 187.434 115.145 185.144 116.861 183.457C118.577 181.769 120.904 180.82 123.331 180.82H164.506C166.93 180.829 169.253 181.78 170.967 183.466C172.681 185.152 173.648 187.436 173.656 189.82Z" fill="white" stroke="#2C3338" stroke-linecap="round" stroke-linejoin="round"/>
<path d="M155.356 167.051H132.481V180.821H155.356V167.051Z" fill="white"/>
<path d="M155.356 167.051H132.481V180.821H155.356V167.051Z" stroke="#2C3338" stroke-linecap="round" stroke-linejoin="round"/>
<path d="M205.681 61.4878H82.2887C79.2553 61.4878 76.3461 62.6967 74.2012 64.8486C72.0562 67.0004 70.8512 69.919 70.8512 72.9622V148.693H217.119V72.9622C217.11 69.9217 215.902 67.0082 213.759 64.8583C211.616 62.7083 208.712 61.4966 205.681 61.4878Z" fill="#5000B9"/>
<path d="M205.681 61.4878H82.2887C79.2553 61.4878 76.3461 62.6967 74.2012 64.8486C72.0562 67.0004 70.8512 69.919 70.8512 72.9622V148.693H217.119V72.9622C217.11 69.9217 215.902 67.0082 213.759 64.8583C211.616 62.7083 208.712 61.4966 205.681 61.4878V61.4878Z" stroke="#2C3338" stroke-linecap="round" stroke-linejoin="round"/>
<path d="M205.681 167.051C208.715 167.051 211.624 165.842 213.769 163.69C215.914 161.538 217.119 158.62 217.119 155.577V148.692H70.7184V155.577C70.7139 157.096 71.011 158.601 71.5925 160.004C72.174 161.407 73.0282 162.68 74.1053 163.748C75.1823 164.816 76.4607 165.658 77.8657 166.225C79.2707 166.792 80.7742 167.073 82.2886 167.051H205.681Z" fill="white" stroke="#2C3338" stroke-linecap="round" stroke-linejoin="round"/>
<path d="M143.919 159.767C144.962 159.767 145.808 158.918 145.808 157.871C145.808 156.824 144.962 155.976 143.919 155.976C142.875 155.976 142.029 156.824 142.029 157.871C142.029 158.918 142.875 159.767 143.919 159.767Z" stroke="#2C3338" stroke-linecap="round" stroke-linejoin="round"/>
<rect x="211.884" y="185.628" width="25.2967" height="4" rx="1" fill="#9F6FFF" stroke="#2C3338"/>
<rect x="222.423" y="164.86" width="4.2946" height="20.7674" fill="#9F6FFF" stroke="#2C3338"/>
<path d="M207.392 108.981C207.392 106.772 209.183 104.981 211.392 104.981H237.749C239.958 104.981 241.749 106.772 241.749 108.981V147.997H207.392V108.981Z" fill="white" stroke="#2C3338"/>
<mask id="mask0" mask-type="alpha" maskUnits="userSpaceOnUse" x="206" y="104" width="37" height="45">
<path d="M207.392 108.981C207.392 106.772 209.183 104.981 211.392 104.981H237.749C239.958 104.981 241.749 106.772 241.749 108.981V147.997H207.392V108.981Z" fill="white" stroke="#2C3338"/>
</mask>
<g mask="url(#mask0)">
<line y1="-0.5" x2="57.847" y2="-0.5" transform="matrix(0.706526 -0.707687 0.706526 0.707687 199.441 143.404)" stroke="#2C3338"/>
<line y1="-0.5" x2="57.847" y2="-0.5" transform="matrix(0.706526 -0.707687 0.706526 0.707687 186.041 129.981)" stroke="#2C3338"/>
<line y1="-0.5" x2="61.6402" y2="-0.5" transform="matrix(-0.706526 -0.707688 0.706526 -0.707687 232.271 153.471)" stroke="#2C3338"/>
<line y1="-0.5" x2="57.8469" y2="-0.5" transform="matrix(0.706526 -0.707687 0.706526 0.707687 204.801 148.771)" stroke="#2C3338"/>
<line y1="-0.5" x2="61.6402" y2="-0.5" transform="matrix(-0.706526 -0.707688 0.706526 -0.707687 237.631 148.101)" stroke="#2C3338"/>
<line y1="-0.5" x2="57.8469" y2="-0.5" transform="matrix(0.706526 -0.707688 0.706525 0.707688 210.161 154.141)" stroke="#2C3338"/>
<line y1="-0.5" x2="57.8469" y2="-0.5" transform="matrix(0.706526 -0.707687 0.706526 0.707687 212.841 156.825)" stroke="#2C3338"/>
<line y1="-0.5" x2="57.8469" y2="-0.5" transform="matrix(0.706525 -0.707688 0.706525 0.707688 215.52 159.51)" stroke="#2C3338"/>
<line y1="-0.5" x2="57.8469" y2="-0.5" transform="matrix(0.706526 -0.707687 0.706526 0.707687 218.201 162.195)" stroke="#2C3338"/>
<line y1="-0.5" x2="57.8469" y2="-0.5" transform="matrix(0.706526 -0.707687 0.706526 0.707687 220.88 164.879)" stroke="#2C3338"/>
<line y1="-0.5" x2="57.8469" y2="-0.5" transform="matrix(0.706526 -0.707687 0.706526 0.707687 194.081 138.035)" stroke="#2C3338"/>
<line y1="-0.5" x2="57.847" y2="-0.5" transform="matrix(0.706526 -0.707687 0.706526 0.707687 180.681 124.611)" stroke="#2C3338"/>
<line y1="-0.5" x2="61.6402" y2="-0.5" transform="matrix(-0.706525 -0.707688 0.706525 -0.707688 226.91 158.84)" stroke="#2C3338"/>
<line y1="-0.5" x2="57.8469" y2="-0.5" transform="matrix(0.706526 -0.707688 0.706525 0.707688 202.12 146.089)" stroke="#2C3338"/>
<line y1="-0.5" x2="57.8469" y2="-0.5" transform="matrix(0.706526 -0.707688 0.706525 0.707688 188.72 132.666)" stroke="#2C3338"/>
<line y1="-0.5" x2="61.6402" y2="-0.5" transform="matrix(-0.706526 -0.707687 0.706526 -0.707687 234.95 150.786)" stroke="#2C3338"/>
<line y1="-0.5" x2="57.847" y2="-0.5" transform="matrix(0.706526 -0.707687 0.706526 0.707687 207.48 151.456)" stroke="#2C3338"/>
<line y1="-0.5" x2="61.6401" y2="-0.5" transform="matrix(-0.706526 -0.707687 0.706526 -0.707687 240.31 145.417)" stroke="#2C3338"/>
<line y1="-0.5" x2="61.6401" y2="-0.5" transform="matrix(-0.706526 -0.707687 0.706526 -0.707687 242.991 142.732)" stroke="#2C3338"/>
<line y1="-0.5" x2="61.6401" y2="-0.5" transform="matrix(-0.706525 -0.707688 0.706525 -0.707688 253.71 131.996)" stroke="#2C3338"/>
<line y1="-0.5" x2="61.6402" y2="-0.5" transform="matrix(-0.706526 -0.707688 0.706526 -0.707688 245.671 140.047)" stroke="#2C3338"/>
<line y1="-0.5" x2="61.6401" y2="-0.5" transform="matrix(-0.706525 -0.707688 0.706525 -0.707688 256.391 129.311)" stroke="#2C3338"/>
<line y1="-0.5" x2="61.6402" y2="-0.5" transform="matrix(-0.706526 -0.707687 0.706526 -0.707687 248.351 137.362)" stroke="#2C3338"/>
<line y1="-0.5" x2="61.6401" y2="-0.5" transform="matrix(-0.706526 -0.707688 0.706526 -0.707688 259.071 126.626)" stroke="#2C3338"/>
<line y1="-0.5" x2="61.6402" y2="-0.5" transform="matrix(-0.706525 -0.707688 0.706525 -0.707688 251.031 134.68)" stroke="#2C3338"/>
<line y1="-0.5" x2="61.6402" y2="-0.5" transform="matrix(-0.706526 -0.707687 0.706526 -0.707687 261.751 123.942)" stroke="#2C3338"/>
<line y1="-0.5" x2="57.847" y2="-0.5" transform="matrix(0.706526 -0.707687 0.706526 0.707687 196.76 140.72)" stroke="#2C3338"/>
<line y1="-0.5" x2="57.8469" y2="-0.5" transform="matrix(0.706526 -0.707687 0.706526 0.707687 183.36 127.296)" stroke="#2C3338"/>
<line y1="-0.5" x2="61.6401" y2="-0.5" transform="matrix(-0.706525 -0.707688 0.706525 -0.707688 229.591 156.155)" stroke="#2C3338"/>
<line y1="-0.5" x2="57.8469" y2="-0.5" transform="matrix(0.706525 -0.707688 0.706525 0.707688 191.401 135.35)" stroke="#2C3338"/>
<line y1="-0.5" x2="57.8469" y2="-0.5" transform="matrix(0.706526 -0.707687 0.706526 0.707687 178.001 121.927)" stroke="#2C3338"/>
<line y1="-0.5" x2="61.6402" y2="-0.5" transform="matrix(-0.706525 -0.707688 0.706526 -0.707688 224.231 161.522)" stroke="#2C3338"/>
<line y1="-0.5" x2="61.6402" y2="-0.5" transform="matrix(-0.706526 -0.707688 0.706526 -0.707688 221.55 164.207)" stroke="#2C3338"/>
</g>
<path d="M207.392 151.225H241.749V168.733C241.749 170.942 239.958 172.733 237.749 172.733H211.392C209.183 172.733 207.392 170.942 207.392 168.733V151.225Z" fill="#9F6FFF" stroke="#2C3338"/>
<rect x="222.423" y="159.828" width="4.2946" height="4.30161" rx="1" fill="white" stroke="#2C3338"/>
<rect x="206.318" y="146.921" width="36.504" height="4.30167" rx="1" fill="#9F6FFF" stroke="#2C3338"/>
<path d="M65.9639 34.1768C65.8468 33.6603 65.378 33.1437 64.9092 33.0146L61.042 31.4649C60.5732 31.3358 60.5732 31.0775 61.042 30.8192L64.9092 29.2696C65.378 29.2696 65.8468 28.753 65.9639 28.2364L67.3702 23.9749C67.4874 23.4583 67.7218 23.4583 67.9562 23.9749L69.3624 28.2364C69.4796 28.753 69.9484 29.2696 70.4171 29.3987L74.2844 30.9484C74.7531 31.0775 74.7531 31.3358 74.2844 31.594L70.3 33.0146C69.8312 33.1437 69.3624 33.6603 69.2452 34.1768L67.839 38.4384C67.7218 38.9549 67.4874 38.9549 67.253 38.4384L65.9639 34.1768Z" fill="#5198D9"/>
<path d="M48.3947 93.7586C47.7972 93.9581 47.1996 94.5566 47.1996 94.9556L45.8054 98.7463C45.6062 99.3448 45.2078 99.3448 45.0086 98.7463L43.6144 94.9556C43.4152 94.3571 42.8176 93.7586 42.4193 93.7586L38.6348 92.362C38.0373 92.1625 38.0373 91.7635 38.6348 91.564L42.4193 90.1674C43.0168 89.9679 43.6144 89.3694 43.6144 88.9704L45.0086 85.1797C45.2078 84.5812 45.6062 84.5812 45.8053 85.1797L47.1996 88.9704C47.3988 89.5689 47.9963 90.1674 48.3947 90.1674L52.1791 91.564C52.7767 91.7635 52.7767 92.1625 52.1791 92.362L48.3947 93.7586Z" fill="#F283AA"/>
<path d="M44.8875 24.4291C44.7696 24.1338 44.5337 23.8385 44.2979 23.6908L43.1185 23.1002C42.8827 22.9525 42.8827 22.8049 43.1185 22.8049L44.2979 22.2143C44.5337 22.0666 44.7696 21.7713 44.8875 21.476L45.3593 19.9994C45.4772 19.7041 45.5951 19.7041 45.5951 19.9994L46.0669 21.476C46.1848 21.7713 46.4207 22.0666 46.6565 22.2143L47.8359 22.8049C48.0717 22.9525 48.0717 23.1002 47.8359 23.1002L46.6565 23.6908C46.4207 23.8385 46.1848 24.1338 46.0669 24.4291L45.5951 25.9057C45.4772 26.201 45.3593 26.201 45.3593 25.9057L44.8875 24.4291Z" fill="#F0C930"/>
<path d="M224.234 73.692L224.234 95.2797" stroke="#F0C930" stroke-linecap="round"/>
<path d="M16.7556 189.9H275.343" stroke="#2C3338" stroke-linecap="round" stroke-linejoin="round"/>
<path d="M176.837 117.78L190.572 121.219" stroke="#F0C930" stroke-linecap="round"/>
<path d="M255.475 121.22L269.21 117.781" stroke="#F0C930" stroke-linecap="round"/>
<path d="M184.247 86.3432L186.474 88.5745M196.664 98.7808L188.746 90.8497" stroke="#F0C930" stroke-linecap="round"/>
<path d="M262.692 86.3899L260.465 88.6212M250.275 98.8276L258.193 90.8965" stroke="#F0C930" stroke-linecap="round"/>
<g clip-path="url(#clip0)">
<path d="M156.188 99.929C156.188 99.929 154.748 99.2245 153.251 99.6817C152.132 100.022 150.906 100.897 150.208 102.714C148.862 106.199 150.027 112.277 149.571 112.277C149.116 112.277 147.682 106.676 145.763 100.843C143.845 95.0109 142.186 88.9527 139.191 89.4416C136.534 89.873 137.359 96.7802 138.399 103.25C139.341 109.114 140.431 114.604 139.808 114.604C138.695 114.606 135.043 98.3972 131.3 99.0127C127.557 99.6282 132.378 117.488 131.365 117.522C130.533 117.549 128.491 106.65 125.462 107.151C123.167 107.531 125.212 116.01 125.306 118.375C125.329 118.968 125.508 120.083 124.645 120.083H122.932V121.731H125.737C126.313 121.702 126.769 121.474 127 120.89C127.778 118.911 125.733 110.504 126.211 110.442C126.54 110.401 127.25 112.96 128.24 115.855C129.23 118.751 130.221 121.747 132.101 121.747C136.156 121.747 132.021 105.344 132.824 105.344C133.249 105.344 134.408 108.677 135.683 112.332C137.242 116.799 139.143 121.753 141.438 121.753C144.177 121.753 143.285 115.354 142.438 109.223C141.703 103.917 140.842 98.9316 141.302 98.9316C142.336 98.9316 146.24 121.745 150.929 121.745C153.278 121.745 153.305 116.975 153.305 111.834C153.305 108.222 153.012 104.93 155.212 104.139C156.257 103.763 157.315 104.43 157.315 104.43L156.188 99.929Z" fill="white"/>
<path d="M160.1 119.76V115.01H162.061C162.423 114.992 162.786 115.036 163.135 115.139C163.358 115.224 163.547 115.383 163.672 115.592C163.804 115.818 163.87 116.078 163.864 116.342C163.869 116.585 163.81 116.824 163.693 117.035C163.654 117.105 163.609 117.172 163.558 117.233C163.352 117.455 163.083 117.603 162.789 117.656C162.88 117.751 163.008 117.892 163.153 118.07C163.348 118.313 163.525 118.571 163.681 118.842C163.8 119.04 163.993 119.358 164.244 119.768H163.131L162.459 118.735C162.309 118.492 162.145 118.259 161.968 118.036C161.891 117.949 161.795 117.881 161.688 117.838C161.535 117.796 161.377 117.778 161.219 117.785H161.027V119.764L160.1 119.76ZM161.032 117.021H161.72C162.001 117.036 162.283 117.016 162.559 116.962C162.664 116.927 162.755 116.857 162.818 116.764C162.884 116.658 162.917 116.533 162.912 116.407C162.921 116.264 162.877 116.123 162.789 116.012C162.698 115.908 162.573 115.842 162.438 115.826C162.363 115.814 162.136 115.81 161.759 115.81H161.032V117.021Z" fill="white"/>
<path d="M161.832 121.63C161.01 121.63 160.207 121.378 159.525 120.906C158.862 120.445 158.343 119.796 158.032 119.038C157.819 118.515 157.709 117.953 157.709 117.386C157.709 116.819 157.819 116.258 158.032 115.735C158.345 114.977 158.863 114.328 159.525 113.866C160.207 113.393 161.01 113.141 161.832 113.141C162.654 113.141 163.457 113.393 164.139 113.866C164.358 114.019 164.563 114.192 164.75 114.385C165.523 115.181 165.957 116.261 165.957 117.386C165.957 118.512 165.523 119.591 164.75 120.388C164.563 120.58 164.358 120.754 164.139 120.906C163.919 121.061 163.684 121.194 163.439 121.302C162.93 121.522 162.384 121.634 161.832 121.63ZM161.832 113.5C161.085 113.5 160.355 113.728 159.734 114.155C159.113 114.583 158.63 115.19 158.344 115.9C158.058 116.61 157.983 117.392 158.129 118.146C158.275 118.9 158.635 119.593 159.163 120.136C159.691 120.68 160.364 121.05 161.097 121.2C161.829 121.349 162.588 121.272 163.278 120.978C163.968 120.683 164.558 120.185 164.972 119.545C165.387 118.906 165.608 118.154 165.607 117.385C165.606 116.355 165.208 115.367 164.5 114.639C163.792 113.911 162.833 113.501 161.832 113.5Z" fill="white"/>
</g>
<defs>
<clipPath id="clip0">
<rect width="43.0234" height="32.3312" fill="white" transform="translate(122.932 89.414)"/>
</clipPath>
</defs>
</svg>

<svg width="292" height="191" fill="none" xmlns="http://www.w3.org/2000/svg"><path d="M278.316 135.023a133.388 133.388 0 00-12.967-57.364 132.962 132.962 0 00-36.356-46.147 132.438 132.438 0 00-52.637-25.91 132.195 132.195 0 00-58.629-.607A132.42 132.42 0 0064.568 29.81a132.943 132.943 0 00-37.297 45.385 133.379 133.379 0 00-14.144 57.083A133.407 133.407 0 0024.9 189.901h241.58a132.406 132.406 0 0011.835-54.878z" fill="#399ce3" fill-opacity=".1"/><path d="M1.837 189.9h8.288M281.974 189.9h8.288" stroke="#2C3338" stroke-linecap="round" stroke-linejoin="round"/><path d="M173.656 189.82h-59.475c0-2.386.964-4.676 2.68-6.363a9.228 9.228 0 016.47-2.637h41.175a9.264 9.264 0 016.461 2.646 8.955 8.955 0 012.689 6.354z" fill="#fff" stroke="#2C3338" stroke-linecap="round" stroke-linejoin="round"/><path d="M155.356 167.051h-22.875v13.77h22.875v-13.77z" fill="#fff"/><path d="M155.356 167.051h-22.875v13.77h22.875v-13.77z" stroke="#2C3338" stroke-linecap="round" stroke-linejoin="round"/><path d="M205.681 61.488H82.289a11.419 11.419 0 00-8.088 3.36 11.493 11.493 0 00-3.35 8.114v75.731H217.12v-75.73a11.528 11.528 0 00-3.36-8.105 11.452 11.452 0 00-8.078-3.37z" fill="#5000B9"/><path d="M205.681 61.488H82.289a11.419 11.419 0 00-8.088 3.36 11.493 11.493 0 00-3.35 8.114v75.731H217.12v-75.73a11.528 11.528 0 00-3.36-8.105 11.452 11.452 0 00-8.078-3.37v0z" stroke="#2C3338" stroke-linecap="round" stroke-linejoin="round"/><path d="M205.681 167.051c3.034 0 5.943-1.209 8.088-3.361a11.492 11.492 0 003.35-8.113v-6.885h-146.4v6.885a11.474 11.474 0 003.386 8.171 11.399 11.399 0 008.184 3.303H205.68z" fill="#fff" stroke="#2C3338" stroke-linecap="round" stroke-linejoin="round"/><path d="M143.919 159.767a1.893 1.893 0 001.889-1.896 1.892 1.892 0 00-1.889-1.895c-1.044 0-1.89.848-1.89 1.895 0 1.047.846 1.896 1.89 1.896z" stroke="#2C3338" stroke-linecap="round" stroke-linejoin="round"/><rect x="211.884" y="185.628" width="25.297" height="4" rx="1" fill="#9F6FFF" stroke="#2C3338"/><path fill="#9F6FFF" stroke="#2C3338" d="M222.423 164.86h4.295v20.767h-4.295z"/><path d="M207.392 108.981a4 4 0 014-4h26.357a4 4 0 014 4v39.016h-34.357v-39.016z" fill="#fff" stroke="#2C3338"/><mask id="a" maskUnits="userSpaceOnUse" x="206" y="104" width="37" height="45"><path d="M207.392 108.981a4 4 0 014-4h26.357a4 4 0 014 4v39.016h-34.357v-39.016z" fill="#fff" stroke="#2C3338"/></mask><g mask="url(#a)" stroke="#2C3338"><path transform="rotate(-45.047 272.624 -168.765)" d="M0-.5h57.847"/><path transform="rotate(-45.047 249.74 -159.32)" d="M0-.5h57.847"/><path transform="rotate(-134.953 147.957 28.575) skewX(.094)" d="M0-.5h61.64"/><path transform="rotate(-45.047 281.775 -172.544)" d="M0-.5h57.847"/><path transform="rotate(-134.953 149.524 24.778) skewX(.094)" d="M0-.5h61.64"/><path transform="rotate(-45.047 290.929 -176.322) skewX(-.094)" d="M0-.5h57.847"/><path transform="rotate(-45.047 295.505 -178.211)" d="M0-.5h57.847"/><path transform="rotate(-45.047 300.082 -180.098)" d="M0-.5h57.847"/><path transform="rotate(-45.047 304.66 -181.989)" d="M0-.5h57.847"/><path transform="rotate(-45.047 309.236 -183.877)" d="M0-.5h57.847"/><path transform="rotate(-45.047 263.47 -164.987)" d="M0-.5h57.847"/><path transform="rotate(-45.047 240.585 -155.543)" d="M0-.5h57.847"/><path transform="rotate(-134.953 146.39 32.37)" d="M0-.5h61.64"/><path transform="rotate(-45.047 277.2 -170.653) skewX(-.094)" d="M0-.5h57.847"/><path transform="rotate(-45.047 254.316 -161.208) skewX(-.094)" d="M0-.5h57.847"/><path transform="rotate(-134.953 148.74 26.677)" d="M0-.5h61.64"/><path transform="rotate(-45.047 286.352 -174.432)" d="M0-.5h57.847"/><path transform="rotate(-134.953 150.307 22.88)" d="M0-.5h61.64"/><path transform="rotate(-134.953 151.09 20.982)" d="M0-.5h61.64"/><path transform="rotate(-134.953 154.224 13.392)" d="M0-.5h61.64"/><path transform="rotate(-134.953 151.874 19.084)" d="M0-.5h61.64"/><path transform="rotate(-134.953 155.008 11.493)" d="M0-.5h61.64"/><path transform="rotate(-134.953 152.657 17.186)" d="M0-.5h61.64"/><path transform="rotate(-134.953 155.791 9.595)" d="M0-.5h61.64"/><path transform="rotate(-134.953 153.441 15.29)" d="M0-.5h61.64"/><path transform="rotate(-134.953 156.575 7.698)" d="M0-.5h61.64"/><path transform="rotate(-45.047 268.047 -166.875)" d="M0-.5h57.847"/><path transform="rotate(-45.047 245.162 -157.43)" d="M0-.5h57.847"/><path transform="rotate(-134.953 147.174 30.472)" d="M0-.5h61.64"/><path transform="rotate(-45.047 258.893 -163.098)" d="M0-.5h57.847"/><path transform="rotate(-45.047 236.009 -153.653)" d="M0-.5h57.847"/><path transform="rotate(-134.953 145.607 34.267) skewX(.094)" d="M0-.5h61.64"/><path transform="rotate(-134.953 144.823 36.166)" d="M0-.5h61.64"/></g><path d="M207.392 151.225h34.357v17.508a4 4 0 01-4 4h-26.357a4 4 0 01-4-4v-17.508z" fill="#9F6FFF" stroke="#2C3338"/><rect x="222.423" y="159.828" width="4.295" height="4.302" rx="1" fill="#fff" stroke="#2C3338"/><rect x="206.318" y="146.921" width="36.504" height="4.302" rx="1" fill="#9F6FFF" stroke="#2C3338"/><path d="M65.964 34.177c-.117-.517-.586-1.033-1.055-1.162l-3.867-1.55c-.469-.13-.469-.387 0-.646l3.867-1.55c.469 0 .938-.516 1.055-1.033l1.406-4.261c.117-.517.352-.517.586 0l1.406 4.261c.118.517.586 1.034 1.055 1.163l3.867 1.55c.47.128.47.387 0 .645l-3.984 1.42c-.469.13-.938.646-1.055 1.163l-1.406 4.261c-.117.517-.352.517-.586 0l-1.29-4.261z" fill="#399ce3"/><path d="M48.395 93.759c-.598.2-1.195.798-1.195 1.197l-1.395 3.79c-.199.599-.597.599-.796 0l-1.395-3.79c-.199-.599-.796-1.197-1.195-1.197l-3.784-1.397c-.598-.2-.598-.599 0-.798l3.784-1.397c.598-.2 1.195-.798 1.195-1.197l1.395-3.79c.199-.599.597-.599.796 0l1.395 3.79c.199.599.796 1.197 1.195 1.197l3.784 1.397c.598.2.598.599 0 .798l-3.784 1.397z" fill="#F283AA"/><path d="M44.888 24.43c-.118-.296-.354-.591-.59-.74l-1.18-.59c-.235-.148-.235-.295 0-.295l1.18-.59c.236-.148.472-.444.59-.739l.471-1.477c.118-.295.236-.295.236 0l.472 1.477c.118.295.354.59.59.738l1.179.59c.236.149.236.296 0 .296l-1.18.59c-.235.148-.471.444-.59.74l-.47 1.476c-.119.295-.237.295-.237 0l-.471-1.477z" fill="#F0C930"/><path d="M224.234 73.692V95.28" stroke="#F0C930" stroke-linecap="round"/><path d="M16.756 189.9h258.587" stroke="#2C3338" stroke-linecap="round" stroke-linejoin="round"/><path d="M176.837 117.78l13.735 3.439M255.475 121.22l13.735-3.439M184.247 86.343l2.227 2.231m10.19 10.207l-7.918-7.931M262.692 86.39l-2.227 2.231m-10.19 10.207l7.918-7.931" stroke="#F0C930" stroke-linecap="round"/><g clip-path="url(#clip0)" fill="#fff"><path d="M156.188 99.929s-1.44-.704-2.937-.247c-1.119.34-2.345 1.215-3.043 3.032-1.346 3.485-.181 9.563-.637 9.563-.455 0-1.889-5.601-3.808-11.434-1.918-5.832-3.577-11.89-6.572-11.401-2.657.431-1.832 7.338-.792 13.808.942 5.864 2.032 11.354 1.409 11.354-1.113.002-4.765-16.207-8.508-15.591-3.743.615 1.078 18.475.065 18.509-.832.027-2.874-10.872-5.903-10.371-2.295.38-.25 8.859-.156 11.224.023.593.202 1.708-.661 1.708h-1.713v1.648h2.805c.576-.029 1.032-.257 1.263-.841.778-1.979-1.267-10.386-.789-10.448.329-.041 1.039 2.518 2.029 5.413.99 2.896 1.981 5.892 3.861 5.892 4.055 0-.08-16.403.723-16.403.425 0 1.584 3.333 2.859 6.988 1.559 4.467 3.46 9.421 5.755 9.421 2.739 0 1.847-6.399 1-12.53-.735-5.306-1.596-10.291-1.136-10.291 1.034 0 4.938 22.813 9.627 22.813 2.349 0 2.376-4.77 2.376-9.911 0-3.612-.293-6.904 1.907-7.695 1.045-.376 2.103.291 2.103.291l-1.127-4.501zM160.1 119.76v-4.75h1.961c.362-.018.725.026 1.074.129.223.085.412.244.537.453.132.226.198.486.192.75a1.37 1.37 0 01-.306.891c-.206.222-.475.37-.769.423a6.084 6.084 0 01.892 1.186c.119.198.312.516.563.926h-1.113l-.672-1.033a7.247 7.247 0 00-.491-.699.746.746 0 00-.28-.198 1.517 1.517 0 00-.469-.053h-.192v1.979l-.927-.004zm.932-2.739h.688c.281.015.563-.005.839-.059a.508.508 0 00.259-.198.63.63 0 00.094-.357.578.578 0 00-.123-.395.553.553 0 00-.351-.186 7.158 7.158 0 00-.679-.016h-.727v1.211z"/><path d="M161.832 121.63a4.051 4.051 0 01-2.307-.724 4.227 4.227 0 01-1.493-1.868 4.384 4.384 0 010-3.303 4.256 4.256 0 011.493-1.869 4.045 4.045 0 012.307-.725c.822 0 1.625.252 2.307.725.219.153.424.326.611.519a4.31 4.31 0 011.207 3.001 4.312 4.312 0 01-1.207 3.002 4.187 4.187 0 01-.611.518c-.22.155-.455.288-.7.396a3.974 3.974 0 01-1.607.328zm0-8.13a3.7 3.7 0 00-2.098.655 3.872 3.872 0 00-1.39 1.745 3.99 3.99 0 00-.215 2.246 3.924 3.924 0 001.034 1.99 3.741 3.741 0 001.934 1.064 3.684 3.684 0 002.181-.222 3.798 3.798 0 001.694-1.433 3.959 3.959 0 00.635-2.16 3.946 3.946 0 00-1.107-2.746 3.726 3.726 0 00-2.668-1.139z"/></g><defs><clipPath id="clip0"><path fill="#fff" transform="translate(122.932 89.414)" d="M0 0h43.023v32.331H0z"/></clipPath></defs></svg>
